_/img/lisk-chevron.svg

<svg width="10" height="6" viewBox="0 0 10 6" fill="none" xmlns="http://www.w3.org/2000/svg">
<path d="M1.96931 0.410264C1.69975 0.0957694 1.22627 0.0593481 0.911778 0.328915C0.597284 0.598482 0.560863 1.07196 0.830429 1.38645L1.96931 0.410264ZM4.99987 5.09836L4.43043 5.58645C4.57292 5.75269 4.78093 5.84836 4.99987 5.84836C5.21882 5.84836 5.42683 5.75269 5.56931 5.58645L4.99987 5.09836ZM9.16931 1.38645C9.43888 1.07196 9.40246 0.598482 9.08797 0.328915C8.77347 0.0593481 8.3 0.0957694 8.03043 0.410264L9.16931 1.38645ZM0.830429 1.38645L4.43043 5.58645L5.56931 4.61026L1.96931 0.410264L0.830429 1.38645ZM5.56931 5.58645L9.16931 1.38645L8.03043 0.410264L4.43043 4.61026L5.56931 5.58645Z" fill="#0C152E"/>
</svg>

<svg width="10" height="6" viewBox="0 0 10 6" fill="none" xmlns="http://www.w3.org/2000/svg"><path d="M1.97.41a.75.75 0 10-1.14.976L1.97.41zM5 5.098l-.57.488a.75.75 0 001.14 0L5 5.098zm4.17-3.712A.75.75 0 108.03.41l1.14.976zm-8.34 0l3.6 4.2 1.14-.976-3.6-4.2-1.14.976zm4.74 4.2l3.6-4.2L8.03.41l-3.6 4.2 1.14.976z" fill="#0C152E"/></svg>
